X:1882
T:Bourre - O est pass le temps
C:F. Paris
M:3/8
L:1/16
K:C
E2|A2A4|GAB3c|B3AG2|\
A2A4|GAB3A|G4:|\
|:E2|B2BABc|B4A2|BcB2A2|\
B4E2|B2B4|A2c3B|A4:|
